; G-Code generated by Simplify3D(R) Version 4.0.1
; Oct 7, 2022 at 2:02:46 PM
; Settings Summary
;   processName,Process1
;   applyToModels,CustomPotentiometerKnob,CustomPotentiometerKnob(2),CustomPotentiometerKnob(3),CustomPotentiometerKnob(4)
;   profileName,F410_0.4C_PLA (modified)
;   profileVersion,2022-03-09 09:51:28
;   baseProfile,F400_PLA
;   printMaterial,
;   printQuality,Standard
;   printExtruders,
;   extruderName,Primary Extruder
;   extruderToolheadNumber,0
;   extruderDiameter,0.4
;   extruderAutoWidth,0
;   extruderWidth,0.45
;   extrusionMultiplier,1
;   extruderUseRetract,1
;   extruderRetractionDistance,4.25
;   extruderExtraRestartDistance,0.05
;   extruderRetractionZLift,0
;   extruderRetractionSpeed,24000
;   extruderUseCoasting,0
;   extruderCoastingDistance,0.5
;   extruderUseWipe,0
;   extruderWipeDistance,5
;   primaryExtruder,0
;   layerHeight,0.2
;   topSolidLayers,3
;   bottomSolidLayers,3
;   perimeterOutlines,2
;   printPerimetersInsideOut,0
;   startPointOption,3
;   startPointOriginX,0
;   startPointOriginY,360
;   sequentialIslands,0
;   spiralVaseMode,0
;   firstLayerHeightPercentage,100
;   firstLayerWidthPercentage,100
;   firstLayerUnderspeed,0.4
;   useRaft,0
;   raftExtruder,0
;   raftTopLayers,2
;   raftBaseLayers,0
;   raftOffset,4
;   raftSeparationDistance,0.15
;   raftTopInfill,100
;   aboveRaftSpeedMultiplier,0.3
;   useSkirt,1
;   skirtExtruder,0
;   skirtLayers,1
;   skirtOutlines,1
;   skirtOffset,5
;   usePrimePillar,0
;   primePillarExtruder,999
;   primePillarWidth,12
;   primePillarLocation,7
;   primePillarSpeedMultiplier,1
;   useOozeShield,0
;   oozeShieldExtruder,999
;   oozeShieldOffset,2
;   oozeShieldOutlines,1
;   oozeShieldSidewallShape,1
;   oozeShieldSidewallAngle,30
;   oozeShieldSpeedMultiplier,1
;   infillExtruder,0
;   internalInfillPattern,Rectilinear
;   externalInfillPattern,Rectilinear
;   infillPercentage,35
;   outlineOverlapPercentage,20
;   infillExtrusionWidthPercentage,100
;   minInfillLength,5
;   infillLayerInterval,1
;   internalInfillAngles,45,-45
;   overlapInternalInfillAngles,0
;   externalInfillAngles,45,-45
;   generateSupport,0
;   supportExtruder,0
;   supportInfillPercentage,30
;   supportExtraInflation,0.5
;   supportBaseLayers,0
;   denseSupportExtruder,0
;   denseSupportLayers,0
;   denseSupportInfillPercentage,70
;   supportLayerInterval,1
;   supportHorizontalPartOffset,0.35
;   supportUpperSeparationLayers,1
;   supportLowerSeparationLayers,1
;   supportType,1
;   supportGridSpacing,2
;   maxOverhangAngle,45
;   supportAngles,45
;   temperatureName,Primary Extruder,Heated Bed
;   temperatureNumber,0,2
;   temperatureSetpointCount,1,1
;   temperatureSetpointLayers,1,1
;   temperatureSetpointTemperatures,230,45
;   temperatureStabilizeAtStartup,0,0
;   temperatureHeatedBed,0,1
;   temperatureRelayBetweenLayers,0,0
;   temperatureRelayBetweenLoops,0,0
;   fanLayers,1,3,4,5
;   fanSpeeds,0,25,50,100
;   blipFanToFullPower,0
;   adjustSpeedForCooling,1
;   minSpeedLayerTime,5
;   minCoolingSpeedSlowdown,30
;   increaseFanForCooling,1
;   minFanLayerTime,13
;   maxCoolingFanSpeed,100
;   increaseFanForBridging,1
;   bridgingFanSpeed,100
;   use5D,1
;   relativeEdistances,1
;   allowEaxisZeroing,1
;   independentExtruderAxes,0
;   includeM10123,0
;   stickySupport,1
;   applyToolheadOffsets,0
;   gcodeXoffset,0
;   gcodeYoffset,0
;   gcodeZoffset,0
;   overrideMachineDefinition,1
;   machineTypeOverride,0
;   strokeXoverride,355
;   strokeYoverride,355
;   strokeZoverride,315
;   originOffsetXoverride,0
;   originOffsetYoverride,0
;   originOffsetZoverride,0
;   homeXdirOverride,1
;   homeYdirOverride,-1
;   homeZdirOverride,1
;   flipXoverride,1
;   flipYoverride,-1
;   flipZoverride,1
;   toolheadOffsets,0,0|0,0|0,0|0,0|0,0|0,0
;   overrideFirmwareConfiguration,1
;   firmwareTypeOverride,RepRap (Marlin/Repetier/Sprinter)
;   GPXconfigOverride,r2
;   baudRateOverride,115200
;   overridePrinterModels,0
;   printerModelsOverride
;   startingGcode,M104 S0 ;cancel S3D set temp,G21  ; set units to mm,G90  ; use absolute coordinates,T0  ; select tool 0,G92 E0.0  ; reset e count,M220 S100 ; reset speed multiplier,M140 S[bed2_temperature]  ; set bed temp and do not wait,G32  ; probe bed,M190 S[bed2_temperature]  ; set bed temperature and wait,M109 S[extruder0_temperature]  ; set print head temperature and wait,; === pause for heating ===,; reset filament monitor,M42 P63 S0,G4 P100,G4 P50,M42 P63 S1,;,G1 Z10.0 F2000  ; move up,G1 E30.0 F500  ; prime extruder,G1 X20 Y15 F9000  ; move back,G1 Z0 F1000  ; move down to begin wipe,G1 X150 E4.0 F10000  ; wipe print head (extrude material while we do this),G92 E0.0  ; reset e count
;   layerChangeGcode,
;   retractionGcode,
;   toolChangeGcode,
;   endingGcode,G91  ;relative positioning,G1 E-5.00 F1000  ;retract 5mm of filament,G1 Z+1.00 X-20.0 Y+20.0 F10000  ;short quick move to disengage from print,G90  ;absolute positioning,G1 X0.0 Y350.0 F9000  ; move head to back left corner,G91  ; relative positioning,G1 E-5.00 F500  ;retract additional filament to prevent oozing,G90 ;absolute positioning,M104 S0  ;turn off hotend,M140 S0  ;turn off heatbed,; Reset filament monitor,M42 P63 S0,G4 P100,G4 P50,M42 P63 S1,;,G1 Z315 F1000 ;move print bed down to idle position,M106 S0  ; shut off blower,M84  ;motors off,M561  ;clear bed probe transformation
;   exportFileFormat,gcode
;   celebration,0
;   celebrationSong,Random Song
;   postProcessing,
;   defaultSpeed,6000
;   outlineUnderspeed,0.6
;   solidInfillUnderspeed,0.7
;   supportUnderspeed,1
;   rapidXYspeed,21000
;   rapidZspeed,10000
;   minBridgingArea,50
;   bridgingExtraInflation,0.5
;   bridgingExtrusionMultiplier,1
;   bridgingSpeedMultiplier,0.6
;   useFixedBridgingAngle,0
;   fixedBridgingAngle,0
;   applyBridgingToPerimeters,0
;   filamentDiameters,1.71|1.71|1.71|1.71|1.71|1.71
;   filamentPricesPerKg,46|46|46|46|46|46
;   filamentDensities,1.25|1.25|1.25|1.25|1.25|1.25
;   useMinPrintHeight,0
;   minPrintHeight,13
;   useMaxPrintHeight,0
;   maxPrintHeight,13
;   useDiaphragm,0
;   diaphragmLayerInterval,20
;   robustSlicing,1
;   mergeAllIntoSolid,0
;   onlyRetractWhenCrossingOutline,1
;   retractBetweenLayers,0
;   useRetractionMinTravel,0
;   retractionMinTravel,1
;   retractWhileWiping,0
;   onlyWipeOutlines,1
;   avoidCrossingOutline,0
;   maxMovementDetourFactor,3
;   toolChangeRetractionDistance,0
;   toolChangeExtraRestartDistance,0
;   toolChangeRetractionSpeed,360
;   externalThinWallType,1
;   internalThinWallType,1
;   thinWallAllowedOverlapPercentage,50
;   singleExtrusionMinLength,1
;   singleExtrusionMinPrintingWidthPercentage,50
;   singleExtrusionMaxPrintingWidthPercentage,200
;   singleExtrusionEndpointExtension,0.2
;   horizontalSizeCompensation,0
G90
M83
M106 S0
M104 S0 ;cancel S3D set temp
G21  ; set units to mm
G90  ; use absolute coordinates
T0  ; select tool 0
G92 E0.0  ; reset e count
M220 S100 ; reset speed multiplier
M140 S45  ; set bed temp and do not wait
G32  ; probe bed
M190 S45  ; set bed temperature and wait
M109 S230  ; set print head temperature and wait
; === pause for heating ===
; reset filament monitor
M42 P63 S0
G4 P100
G4 P50
M42 P63 S1
;
G1 Z10.0 F2000  ; move up
G1 E30.0 F500  ; prime extruder
G1 X20 Y15 F9000  ; move back
G1 Z0 F1000  ; move down to begin wipe
G1 X150 E4.0 F10000  ; wipe print head (extrude material while we do this)
G92 E0.0  ; reset e count
G1 E-4.2500 F24000
G1 Z0.200 F10000
; process Process1
; layer 1, Z = 0.200
T0
; tool H0.200 W0.450
; skirt
G1 X164.516 Y164.778 F21000
G1 E4.3000 F7200
G1 X164.523 Y164.771 E0.0004 F2400
G1 X165.404 Y163.967 E0.0467
G1 X165.412 Y163.961 E0.0004
G1 X165.790 Y163.676 E0.0185
G1 X165.798 Y163.670 E0.0004
G1 X166.762 Y163.073 E0.0444
G1 X166.769 Y163.069 E0.0003
G1 X167.082 Y162.904 E0.0139
G1 X167.089 Y162.901 E0.0003
G1 X167.743 Y162.612 E0.0280
G1 X167.750 Y162.609 E0.0003
G1 X168.083 Y162.489 E0.0139
G1 X168.091 Y162.486 E0.0003
G1 X169.181 Y162.176 E0.0444
G1 X169.191 Y162.174 E0.0004
G1 X169.656 Y162.087 E0.0185
G1 X169.666 Y162.085 E0.0004
G1 X170.794 Y161.981 E0.0444
G1 X170.802 Y161.981 E0.0003
G1 X171.156 Y161.972 E0.0139
G1 X171.164 Y161.972 E0.0003
G1 X171.878 Y162.005 E0.0280
G1 X171.886 Y162.006 E0.0003
G1 X172.238 Y162.047 E0.0139
G1 X172.246 Y162.048 E0.0003
G1 X173.360 Y162.256 E0.0444
G1 X173.370 Y162.259 E0.0004
G1 X173.825 Y162.388 E0.0185
G1 X173.834 Y162.391 E0.0004
G1 X174.946 Y162.822 E0.0467
G1 X174.956 Y162.826 E0.0004
G1 X175.379 Y163.037 E0.0185
G1 X175.388 Y163.042 E0.0004
G1 X176.402 Y163.670 E0.0467
G1 X176.410 Y163.676 E0.0004
G1 X176.788 Y163.961 E0.0185
G1 X176.796 Y163.967 E0.0004
G1 X177.500 Y164.609 E0.0373
G1 X178.161 Y164.007 E0.0350
G1 X178.167 Y164.002 E0.0003
G1 X178.444 Y163.782 E0.0139
G1 X178.451 Y163.777 E0.0003
G1 X179.040 Y163.373 E0.0280
G1 X179.047 Y163.369 E0.0003
G1 X179.352 Y163.190 E0.0139
G1 X179.359 Y163.186 E0.0003
G1 X180.374 Y162.681 E0.0444
G1 X180.383 Y162.677 E0.0004
G1 X180.824 Y162.506 E0.0185
G1 X180.834 Y162.502 E0.0004
G1 X181.981 Y162.176 E0.0467
G1 X181.991 Y162.174 E0.0004
G1 X182.456 Y162.087 E0.0185
G1 X182.466 Y162.085 E0.0004
G1 X183.594 Y161.981 E0.0444
G1 X183.602 Y161.981 E0.0003
G1 X183.956 Y161.972 E0.0139
G1 X183.964 Y161.972 E0.0003
G1 X184.619 Y162.003 E0.0257
G1 X184.624 Y162.003 E0.0002
G1 X184.860 Y162.025 E0.0093
G1 X184.865 Y162.025 E0.0002
G1 X185.514 Y162.116 E0.0257
G1 X185.522 Y162.117 E0.0003
G1 X185.868 Y162.190 E0.0139
G1 X185.876 Y162.192 E0.0003
G1 X186.966 Y162.502 E0.0444
G1 X186.976 Y162.506 E0.0004
G1 X187.417 Y162.677 E0.0185
G1 X187.426 Y162.681 E0.0004
G1 X188.494 Y163.212 E0.0467
G1 X188.503 Y163.217 E0.0004
G1 X188.905 Y163.466 E0.0185
G1 X188.913 Y163.472 E0.0004
G1 X189.865 Y164.191 E0.0467
G1 X189.873 Y164.197 E0.0004
G1 X190.222 Y164.516 E0.0185
G1 X190.229 Y164.523 E0.0004
G1 X191.033 Y165.404 E0.0467
G1 X191.039 Y165.412 E0.0004
G1 X191.324 Y165.790 E0.0185
G1 X191.330 Y165.798 E0.0004
G1 X191.958 Y166.812 E0.0467
G1 X191.963 Y166.821 E0.0004
G1 X192.174 Y167.244 E0.0185
G1 X192.178 Y167.254 E0.0004
G1 X192.609 Y168.366 E0.0467
G1 X192.612 Y168.375 E0.0004
G1 X192.741 Y168.830 E0.0185
G1 X192.744 Y168.840 E0.0004
G1 X192.963 Y170.012 E0.0467
G1 X192.964 Y170.023 E0.0004
G1 X193.008 Y170.493 E0.0185
G1 X193.008 Y170.504 E0.0004
G1 X193.008 Y171.696 E0.0467
G1 X193.008 Y171.707 E0.0004
G1 X192.964 Y172.177 E0.0185
G1 X192.963 Y172.188 E0.0004
G1 X192.744 Y173.360 E0.0467
G1 X192.741 Y173.370 E0.0004
G1 X192.612 Y173.825 E0.0185
G1 X192.609 Y173.834 E0.0004
G1 X192.178 Y174.946 E0.0467
G1 X192.174 Y174.956 E0.0004
G1 X191.963 Y175.379 E0.0185
G1 X191.958 Y175.388 E0.0004
G1 X191.330 Y176.402 E0.0467
G1 X191.324 Y176.410 E0.0004
G1 X191.039 Y176.788 E0.0185
G1 X191.033 Y176.796 E0.0004
G1 X190.395 Y177.496 E0.0371
G1 X190.433 Y177.531 E0.0020
G1 X190.439 Y177.536 E0.0003
G1 X190.684 Y177.792 E0.0139
G1 X190.689 Y177.798 E0.0003
G1 X191.145 Y178.348 E0.0280
G1 X191.150 Y178.354 E0.0003
G1 X191.357 Y178.642 E0.0139
G1 X191.361 Y178.648 E0.0003
G1 X191.958 Y179.612 E0.0444
G1 X191.963 Y179.621 E0.0004
G1 X192.174 Y180.044 E0.0185
G1 X192.178 Y180.054 E0.0004
G1 X192.609 Y181.166 E0.0467
G1 X192.612 Y181.175 E0.0004
G1 X192.741 Y181.630 E0.0185
G1 X192.744 Y181.640 E0.0004
G1 X192.963 Y182.812 E0.0467
G1 X192.964 Y182.823 E0.0004
G1 X193.008 Y183.293 E0.0185
G1 X193.008 Y183.304 E0.0004
G1 X193.008 Y184.496 E0.0467
G1 X193.008 Y184.507 E0.0004
G1 X192.964 Y184.977 E0.0185
G1 X192.963 Y184.988 E0.0004
G1 X192.744 Y186.160 E0.0467
G1 X192.741 Y186.170 E0.0004
G1 X192.612 Y186.625 E0.0185
G1 X192.609 Y186.634 E0.0004
G1 X192.178 Y187.746 E0.0467
G1 X192.174 Y187.756 E0.0004
G1 X191.963 Y188.179 E0.0185
G1 X191.958 Y188.188 E0.0004
G1 X191.330 Y189.202 E0.0467
G1 X191.324 Y189.210 E0.0004
G1 X191.039 Y189.588 E0.0185
G1 X191.033 Y189.596 E0.0004
G1 X190.269 Y190.433 E0.0444
G1 X190.264 Y190.439 E0.0003
G1 X190.008 Y190.683 E0.0139
G1 X190.002 Y190.689 E0.0003
G1 X189.452 Y191.145 E0.0280
G1 X189.446 Y191.150 E0.0003
G1 X189.158 Y191.357 E0.0139
G1 X189.151 Y191.361 E0.0003
G1 X188.188 Y191.958 E0.0444
G1 X188.179 Y191.963 E0.0004
G1 X187.756 Y192.174 E0.0185
G1 X187.746 Y192.178 E0.0004
G1 X186.634 Y192.609 E0.0467
G1 X186.625 Y192.612 E0.0004
G1 X186.170 Y192.741 E0.0185
G1 X186.160 Y192.744 E0.0004
G1 X184.988 Y192.963 E0.0467
G1 X184.977 Y192.964 E0.0004
G1 X184.507 Y193.008 E0.0185
G1 X184.496 Y193.008 E0.0004
G1 X183.363 Y193.008 E0.0444
G1 X183.355 Y193.008 E0.0003
G1 X183.002 Y192.984 E0.0139
G1 X182.994 Y192.983 E0.0003
G1 X182.286 Y192.884 E0.0280
G1 X182.278 Y192.883 E0.0003
G1 X181.931 Y192.809 E0.0139
G1 X181.924 Y192.808 E0.0003
G1 X180.834 Y192.497 E0.0444
G1 X180.824 Y192.494 E0.0004
G1 X180.383 Y192.323 E0.0185
G1 X180.374 Y192.319 E0.0004
G1 X179.306 Y191.788 E0.0467
G1 X179.297 Y191.783 E0.0004
G1 X178.895 Y191.534 E0.0185
G1 X178.887 Y191.528 E0.0004
G1 X177.935 Y190.809 E0.0467
G1 X177.927 Y190.803 E0.0004
G1 X177.578 Y190.484 E0.0185
G1 X177.571 Y190.477 E0.0004
G1 X177.500 Y190.400 E0.0041
G1 X177.469 Y190.433 E0.0018
G1 X177.464 Y190.439 E0.0003
G1 X177.208 Y190.684 E0.0139
G1 X177.202 Y190.689 E0.0003
G1 X176.652 Y191.145 E0.0280
G1 X176.646 Y191.150 E0.0003
G1 X176.358 Y191.357 E0.0139
G1 X176.351 Y191.361 E0.0003
G1 X175.388 Y191.958 E0.0444
G1 X175.379 Y191.963 E0.0004
G1 X174.956 Y192.174 E0.0185
G1 X174.946 Y192.178 E0.0004
G1 X173.834 Y192.609 E0.0467
G1 X173.825 Y192.612 E0.0004
G1 X173.370 Y192.741 E0.0185
G1 X173.360 Y192.744 E0.0004
G1 X172.188 Y192.963 E0.0467
G1 X172.177 Y192.964 E0.0004
G1 X171.707 Y193.008 E0.0185
G1 X171.696 Y193.008 E0.0004
G1 X170.563 Y193.008 E0.0444
G1 X170.555 Y193.008 E0.0003
G1 X170.202 Y192.984 E0.0139
G1 X170.194 Y192.983 E0.0003
G1 X169.486 Y192.884 E0.0280
G1 X169.478 Y192.883 E0.0003
G1 X169.132 Y192.809 E0.0139
G1 X169.124 Y192.808 E0.0003
G1 X168.034 Y192.497 E0.0444
G1 X168.024 Y192.494 E0.0004
G1 X167.583 Y192.323 E0.0185
G1 X167.574 Y192.319 E0.0004
G1 X166.506 Y191.788 E0.0467
G1 X166.497 Y191.783 E0.0004
G1 X166.095 Y191.534 E0.0185
G1 X166.087 Y191.528 E0.0004
G1 X165.135 Y190.809 E0.0467
G1 X165.127 Y190.803 E0.0004
G1 X164.778 Y190.484 E0.0185
G1 X164.771 Y190.477 E0.0004
G1 X163.967 Y189.596 E0.0467
G1 X163.961 Y189.588 E0.0004
G1 X163.676 Y189.210 E0.0185
G1 X163.670 Y189.202 E0.0004
G1 X163.042 Y188.188 E0.0467
G1 X163.037 Y188.179 E0.0004
G1 X162.826 Y187.756 E0.0185
G1 X162.822 Y187.746 E0.0004
G1 X162.391 Y186.634 E0.0467
G1 X162.388 Y186.625 E0.0004
G1 X162.259 Y186.170 E0.0185
G1 X162.256 Y186.160 E0.0004
G1 X162.037 Y184.988 E0.0467
G1 X162.036 Y184.977 E0.0004
G1 X161.992 Y184.507 E0.0185
G1 X161.992 Y184.496 E0.0004
G1 X161.992 Y183.304 E0.0467
G1 X161.992 Y183.293 E0.0004
G1 X162.036 Y182.823 E0.0185
G1 X162.037 Y182.812 E0.0004
G1 X162.256 Y181.640 E0.0467
G1 X162.259 Y181.630 E0.0004
G1 X162.388 Y181.175 E0.0185
G1 X162.391 Y181.166 E0.0004
G1 X162.822 Y180.054 E0.0467
G1 X162.826 Y180.044 E0.0004
G1 X163.037 Y179.621 E0.0185
G1 X163.042 Y179.612 E0.0004
G1 X163.670 Y178.598 E0.0467
G1 X163.676 Y178.590 E0.0004
G1 X163.961 Y178.212 E0.0185
G1 X163.967 Y178.204 E0.0004
G1 X164.605 Y177.504 E0.0371
G1 X164.523 Y177.429 E0.0044
G1 X164.516 Y177.422 E0.0004
G1 X164.197 Y177.073 E0.0185
G1 X164.191 Y177.065 E0.0004
G1 X163.472 Y176.113 E0.0467
G1 X163.466 Y176.105 E0.0004
G1 X163.217 Y175.703 E0.0185
G1 X163.212 Y175.694 E0.0004
G1 X162.681 Y174.626 E0.0467
G1 X162.677 Y174.617 E0.0004
G1 X162.506 Y174.176 E0.0185
G1 X162.502 Y174.166 E0.0004
G1 X162.176 Y173.019 E0.0467
G1 X162.174 Y173.009 E0.0004
G1 X162.087 Y172.544 E0.0185
G1 X162.085 Y172.534 E0.0004
G1 X161.975 Y171.347 E0.0467
G1 X161.975 Y171.336 E0.0004
G1 X161.975 Y170.864 E0.0185
G1 X161.975 Y170.853 E0.0004
G1 X162.085 Y169.666 E0.0467
G1 X162.087 Y169.656 E0.0004
G1 X162.174 Y169.191 E0.0185
G1 X162.176 Y169.181 E0.0004
G1 X162.502 Y168.034 E0.0467
G1 X162.506 Y168.024 E0.0004
G1 X162.677 Y167.583 E0.0185
G1 X162.681 Y167.574 E0.0004
G1 X163.212 Y166.506 E0.0467
